!!!COM:	Regis, Johannes
!!!ODT:	~1425//-~1496//
!!!OTL:	Clangat plebs flores / Sicut lilium
!!!AGN:	Motet
!!!SCT:	Reg2004
!!!SCA:	Reg2004
!!!voices:	5
**kern	**text	**kern	**text	**kern	**text	**kern	**text	**kern	**text
*staff5	*staff5	*staff4	*staff4	*staff3	*staff3	*staff2	*staff2	*staff1	*staff1
*Ivox	*	*Ivox	*	*Ivox	*	*Ivox	*	*Ivox	*
*I"Bassus	*	*I"Vagans	*	*I"Tenor	*	*I"Altus	*	*I"Superius	*
*I'B	*	*I'V	*	*I'T	*	*I'A	*	*I'S	*
*>[A,B]	*>[A,B]	*>[A,B]	*>[A,B]	*>[A,B]	*>[A,B]	*>[A,B]	*>[A,B]	*>[A,B]	*>[A,B]
*>A	*>A	*>A	*>A	*>A	*>A	*>A	*>A	*>A	*>A
*clefF4	*	*clefF4	*	*clefGv2	*	*clefGv2	*	*clefG2	*
*k[]	*	*k[]	*	*k[]	*	*k[]	*	*k[]	*
*M3/1	*	*M3/1	*	*M3/1	*	*M3/1	*	*M3/1	*
*met(O)	*	*met(O)	*	*met(O)	*	*met(O)	*	*met(O)	*
!!section: Clangat plebs flores/Sicut lilium
!!!OMD: Clangat plebs flores/Sicut lilium
=1-	=1-	=1-	=1-	=1-	=1-	=1-	=1-	=1-	=1-
0.r	.	[0.D	Clan-	0.r	.	0d	Clan-	1.d	Clan-
.	.	.	.	.	.	.	.	2e/	.
.	.	.	.	.	.	1d	-gat	1f	-gat
=2	=2	=2	=2	=2	=2	=2	=2	=2	=2
0.r	.	1D]	.	0.r	.	1d	plebs	1f	plebs
.	.	0A	.	.	.	2c\	flo-	1e	.
.	.	.	.	.	.	2d\	.	.	.
.	.	.	.	.	.	1e	.	2c/	flo-
.	.	.	.	.	.	.	.	2d/	.
=3	=3	=3	=3	=3	=3	=3	=3	=3	=3
0.r	.	1A	-gat	0.r	.	0c	-res	1e	-res
.	.	0F	plebs	.	.	.	.	1.a	the-
.	.	.	.	.	.	1d	the-	.	.
.	.	.	.	.	.	.	.	2g/	.
=4	=4	=4	=4	=4	=4	=4	=4	=4	=4
0.r	.	1G	flo-	0.r	.	1B	-o-	1.g	-o-
.	.	0D	-res	.	.	0A	-te-	.	.
.	.	.	.	.	.	.	.	2f#i/	.
.	.	.	.	.	.	.	.	2f#i/	-te-
.	.	.	.	.	.	.	.	2e/	.
=5	=5	=5	=5	=5	=5	=5	=5	=5	=5
0.r	.	1E	the-	0.r	.	0G	-ce	1g	-ce
.	.	0C	-o-	.	.	.	.	1.g	vo-
.	.	.	.	.	.	1c	vo-	.	.
.	.	.	.	.	.	.	.	2e/	-ce
=6	=6	=6	=6	=6	=6	=6	=6	=6	=6
0.r	.	1D	-te-	0.r	.	2A/	-ce	1f	so-
.	.	.	.	.	.	2B\	so-	.	.
.	.	1AA	-ce	.	.	1.c	-no-	1.e	-no-
.	.	1C	vo-	.	.	.	.	.	.
.	.	.	.	.	.	2A/	.	2c/	.
=7	=7	=7	=7	=7	=7	=7	=7	=7	=7
0.r	.	1GG	-ce	0.r	.	1B	.	1.d	.
.	.	2r	.	.	.	2.G/	.	.	.
.	.	1GG	so-	.	.	.	.	2B/	.
.	.	.	.	.	.	4A/	.	.	.
.	.	.	.	.	.	2B\	.	2G/	.
.	.	2FF/	.	.	.	2c\	.	4A/	.
.	.	.	.	.	.	.	.	4B/	.
=8	=8	=8	=8	=8	=8	=8	=8	=8	=8
0.r	.	1AA	-no-	0.r	.	1A	.	4c/	.
.	.	.	.	.	.	.	.	4d/	.
.	.	.	.	.	.	.	.	2.e/	.
.	.	2C/	.	.	.	2G/	.	.	.
.	.	.	.	.	.	.	.	4d/	.
.	.	2D\	.	.	.	2F/	.	1d	.
.	.	1AA	.	.	.	1E	.	.	.
.	.	.	.	.	.	.	.	2c#i/	.
=9	=9	=9	=9	=9	=9	=9	=9	=9	=9
0.r	.	0A	-ra	0.r	.	0.D	-ra	1d	-ra
.	.	.	.	.	.	.	.	1r	.
.	.	1F	ut	.	.	.	.	1A	ut
=10	=10	=10	=10	=10	=10	=10	=10	=10	=10
0.r	.	1.D	fa-	0.r	.	1r	.	1A	fa-
.	.	.	.	.	.	1r	.	1B	-mu-
.	.	4C/	.	.	.	.	.	.	.
.	.	4BB/	.	.	.	.	.	.	.
.	.	1AA	-mu-	.	.	1A	ut	2c/	-lis
.	.	.	.	.	.	.	.	2d/	.
=11	=11	=11	=11	=11	=11	=11	=11	=11	=11
0.r	.	1AA	-lis	0.r	.	1A	fa-	1e	mo-
.	.	1r	.	.	.	1B	-mu-	2d/	.
.	.	.	.	.	.	.	.	4c/	.
.	.	.	.	.	.	.	.	4B/	.
.	.	1r	.	.	.	2c\	-lis	1A	-res
.	.	.	.	.	.	2d\	.	.	.
=12	=12	=12	=12	=12	=12	=12	=12	=12	=12
0.r	.	0.r	.	0.r	.	1e	mo-	2r	.
.	.	.	.	.	.	.	.	2c/	de-
.	.	.	.	.	.	2d\	.	2d/	.
.	.	.	.	.	.	4c\	.	2e/	-pu-
.	.	.	.	.	.	4B\	.	.	.
.	.	.	.	.	.	2A/	-res	1f	-tat
.	.	.	.	.	.	[2d\	de-	.	.
=13	=13	=13	=13	=13	=13	=13	=13	=13	=13
0.r	.	0.r	.	0.r	.	2d\]	.	2.e/	abs-
.	.	.	.	.	.	2c\	-pu-	.	.
.	.	.	.	.	.	.	.	4f/	.
.	.	.	.	.	.	2B\	-tat	2g/	.
.	.	.	.	.	.	2A/	abs-	2a/	-que
.	.	.	.	.	.	2B\	-que	4g/	mo-
.	.	.	.	.	.	.	.	4f/	.
.	.	.	.	.	.	2G/	.	2e/	.
=14	=14	=14	=14	=14	=14	=14	=14	=14	=14
0.r	.	0.r	.	0.r	.	1A	mo-	2c/	.
.	.	.	.	.	.	.	.	1e	.
.	.	.	.	.	.	2F/	.	.	.
.	.	.	.	.	.	2D/	.	1d	.
.	.	.	.	.	.	1E	.	.	.
.	.	.	.	.	.	.	.	2c#i/	.
=15	=15	=15	=15	=15	=15	=15	=15	=15	=15
0.D	ut	1.A	ut	0.r	.	1D	-ra.	0.d	-ra.
.	.	.	.	.	.	1r	.	.	.
.	.	2G\	.	.	.	.	.	.	.
.	.	1F	.	.	.	1r	.	.	.
=16	=16	=16	=16	=16	=16	=16	=16	=16	=16
1D	fa-	1F	fa-	0.r	.	0.r	.	0.r	.
1E	.	0E	-mu-	.	.	.	.	.	.
1C	-mu-	.	.	.	.	.	.	.	.
=17	=17	=17	=17	=17	=17	=17	=17	=17	=17
0AA	-lis	1E	-lis	0.r	.	0.r	.	0.r	.
.	.	1.A	mo-	.	.	.	.	.	.
1C	mo-	.	.	.	.	.	.	.	.
.	.	2G\	.	.	.	.	.	.	.
=18	=18	=18	=18	=18	=18	=18	=18	=18	=18
1BB	.	1.G	.	0.r	.	0.r	.	0.r	.
0AA	.	.	.	.	.	.	.	.	.
.	.	2F#i\	.	.	.	.	.	.	.
.	.	2F#i\	.	.	.	.	.	.	.
.	.	2E\	.	.	.	.	.	.	.
=19	=19	=19	=19	=19	=19	=19	=19	=19	=19
0GG	-res	1G	-res	0.r	.	0.r	.	0.r	.
.	.	1.G	de-	.	.	.	.	.	.
1C	de-	.	.	.	.	.	.	.	.
.	.	2E\	.	.	.	.	.	.	.
=20	=20	=20	=20	=20	=20	=20	=20	=20	=20
1D	-pu-	1F	-pu-	0.r	.	0.r	.	0.r	.
1E	-tat	1E	-tat	.	.	.	.	.	.
2C/	abs-	2E\	abs-	.	.	.	.	.	.
2AA/	.	2C/	.	.	.	.	.	.	.
=21	=21	=21	=21	=21	=21	=21	=21	=21	=21
1BB	-que	2.D\	-que	0.r	.	0.r	.	0.r	.
.	.	4E\	.	.	.	.	.	.	.
2AA/	.	2F\	.	.	.	.	.	.	.
2GG/	.	2G\	.	.	.	.	.	.	.
2AA/	.	2F\	.	.	.	.	.	.	.
2GG/	.	[2E\	.	.	.	.	.	.	.
=22	=22	=22	=22	=22	=22	=22	=22	=22	=22
2EE/	.	2E\]	.	0.r	.	0.r	.	0.r	.
2GG/	mo-	2E\	mo-	.	.	.	.	.	.
2AA/	.	2F\	.	.	.	.	.	.	.
2FF/	.	1D	.	.	.	.	.	.	.
1EE	.	.	.	.	.	.	.	.	.
.	.	2C#i/	.	.	.	.	.	.	.
=23	=23	=23	=23	=23	=23	=23	=23	=23	=23
0.DD	-ra.	0.D	-ra.	0.r	.	0A	Cu-	1d	Cu-
.	.	.	.	.	.	.	.	1d	-i
.	.	.	.	.	.	1d	-i	1f	cle-
=24	=24	=24	=24	=24	=24	=24	=24	=24	=24
0.r	.	0.r	.	0.r	.	1d	cle-	1f	-ro
.	.	.	.	.	.	1c	.	2e/	col-
.	.	.	.	.	.	.	.	1g	.
.	.	.	.	.	.	2B\	-ro	.	.
.	.	.	.	.	.	[2d\	col-	2f/	.
=25	=25	=25	=25	=25	=25	=25	=25	=25	=25
0.r	.	0.r	.	0.r	.	2d\]	.	1e	.
.	.	.	.	.	.	2c\	.	.	.
.	.	.	.	.	.	1B	.	1d	-lo
.	.	.	.	.	.	1A	-lo	2r	.
.	.	.	.	.	.	.	.	2c/	con-
=26	=26	=26	=26	=26	=26	=26	=26	=26	=26
0.r	.	0.r	.	0.r	.	2r	.	2d/	-ce-
.	.	.	.	.	.	2G/	con-	2B/	-dan
.	.	.	.	.	.	2A/	-ce-	2A/	car-
.	.	.	.	.	.	2F/	-dan	2d/	.
.	.	.	.	.	.	1E	.	2e/	.
.	.	.	.	.	.	.	.	[2c/	.
=27	=27	=27	=27	=27	=27	=27	=27	=27	=27
0.r	.	0.r	.	0.r	.	2.A/	car-	2c/]	.
.	.	.	.	.	.	.	.	2f/	.
.	.	.	.	.	.	4B\	.	.	.
.	.	.	.	.	.	2c\	.	2e/	.
.	.	.	.	.	.	2.d\	.	2d/	.
.	.	.	.	.	.	.	.	2e/	.
.	.	.	.	.	.	4c\	.	.	.
.	.	.	.	.	.	2B\	.	[2g/	.
=28	=28	=28	=28	=28	=28	=28	=28	=28	=28
0.r	.	0.r	.	0.r	.	2A/	.	4g/]	.
.	.	.	.	.	.	.	.	4f/	.
.	.	.	.	.	.	2c\	.	2e/	.
.	.	.	.	.	.	2B\	.	2d/	.
.	.	.	.	.	.	2c\	.	1e	.
.	.	.	.	.	.	1A	-mi-	.	.
.	.	.	.	.	.	.	.	2e/	-mi-
=29	=29	=29	=29	=29	=29	=29	=29	=29	=29
0.r	.	0.r	.	0.r	.	2A/	-na	2f/	-na
.	.	.	.	.	.	1G	ca-	4g/	ca-
.	.	.	.	.	.	.	.	4f/	.
.	.	.	.	.	.	.	.	4e/	.
.	.	.	.	.	.	.	.	4d/	.
.	.	.	.	.	.	2F/	.	1d	.
.	.	.	.	.	.	1E	.	.	.
.	.	.	.	.	.	.	.	2c#i/	.
=30	=30	=30	=30	=30	=30	=30	=30	=30	=30
0.D	cum	1.A	cum	0.r	.	1D	-ro	1d	-ro
.	.	.	.	.	.	1r	.	1r	.
.	.	2G\	.	.	.	.	.	.	.
.	.	1F	.	.	.	1A	cum	1d	cum
=31	=31	=31	=31	=31	=31	=31	=31	=31	=31
0C	can-	0E	can-	[0.G	Si-	0c	can-	2e/	can-
.	.	.	.	.	.	.	.	2f/	.
.	.	.	.	.	.	.	.	1.g	.
[1GG	-tu	1D	-tu	.	.	1B	-tu	.	.
.	.	.	.	.	.	.	.	2f/	-tu
=32	=32	=32	=32	=32	=32	=32	=32	=32	=32
0.GG]	.	1.D	cle-	0.G]	.	1B	cle-	1d	cle-
.	.	.	.	.	.	2G/	-ro	1d	-ro
.	.	1G	.	.	.	1B	con-	.	.
.	.	.	.	.	.	.	.	2r	.
.	.	2F\	.	.	.	2B\	-gru-	2d/	con-
=33	=33	=33	=33	=33	=33	=33	=33	=33	=33
0.D	cle-	1F	-ro	0.A	.	1A	-e	2d/	-gru-
.	.	.	.	.	.	.	.	2e/	.
.	.	2D\	con-	.	.	1d	.	1f	-e
.	.	2E\	-gru-	.	.	.	.	.	.
.	.	1F	-e	.	.	1d	cun-	1f	cun-
=34	=34	=34	=34	=34	=34	=34	=34	=34	=34
[0.C	-ro	0E	cun-	[0.c	-cut	0G	-cta	0g	-cta
.	.	1E	-cta	.	.	1G	ca-	[1e	ca-
=35	=35	=35	=35	=35	=35	=35	=35	=35	=35
1C]	.	0E	ca-	0.c]	.	1G	-ro	1e]	.
0AA	.	.	.	.	.	2A/	ca-	0e	-ro
.	.	.	.	.	.	2G/	.	.	.
.	.	1A	.	.	.	1E	.	.	.
=36	=36	=36	=36	=36	=36	=36	=36	=36	=36
[0.FF	cun-	0A	-ro	0.c	li-	0F	.	1r	.
.	.	.	.	.	.	.	.	0a	ut
.	.	[1F	ca-	.	.	1C	-ro	.	.
=37	=37	=37	=37	=37	=37	=37	=37	=37	=37
1FF]	.	1F]	.	0.c	-li-	2r	.	1a	vi-
.	.	.	.	.	.	2F/	ut	.	.
0C	-cta	1E	.	.	.	2G/	vi-	2g/	-ven-
.	.	.	.	.	.	2A/	.	2f/	.
.	.	1C	.	.	.	2G/	-ven-	1e	-tem
.	.	.	.	.	.	2E/	.	.	.
=38	=38	=38	=38	=38	=38	=38	=38	=38	=38
[0.GG	ca-	0D	-ro	[0.B	.	0G	.	0d	post
.	.	1r	.	.	.	1G	-tem	1d	pe-
=39	=39	=39	=39	=39	=39	=39	=39	=39	=39
0.GG]	.	0G	mu-	0.B]	.	1r	.	1d	-tat
.	.	.	.	.	.	1d	post	1.g	or-
.	.	1G	-ne-	.	.	1d	pe-	.	.
.	.	.	.	.	.	.	.	2f/	.
=40	=40	=40	=40	=40	=40	=40	=40	=40	=40
0.D	.	1A	-re	0.A	.	0d	-tat	1f	.
.	.	0F	Chri-	.	.	.	.	2d/	.
.	.	.	.	.	.	.	.	2.f/	.
.	.	.	.	.	.	1d	or-	.	.
.	.	.	.	.	.	.	.	4e/	.
.	.	.	.	.	.	.	.	2d/	.
=41	=41	=41	=41	=41	=41	=41	=41	=41	=41
[0.AA	-ro	0.E	-sti	[0.A	-um	0e	.	0c	-bem
.	.	.	.	.	.	1c	-bem	1r	.
=42	=42	=42	=42	=42	=42	=42	=42	=42	=42
0.AA]	.	0E	mu-	0.A]	.	1c	mu-	1.e	mu-
.	.	.	.	.	.	2A/	.	.	.
.	.	.	.	.	.	2.c\	.	2e/	-ne-
.	.	1C	-ne-	.	.	.	.	2e/	-re
.	.	.	.	.	.	4d\	.	.	.
.	.	.	.	.	.	[2e\	.	2c/	.
=43	=43	=43	=43	=43	=43	=43	=43	=43	=43
0.r	.	1GG	-re	0.r	.	2e\]	.	2B/	.
.	.	.	.	.	.	2d\	-ne-	2.d/	Chri-
.	.	1BB	Chri-	.	.	2B\	-re	.	.
.	.	.	.	.	.	.	.	4c/	.
.	.	.	.	.	.	1G	Chri-	2d/	.
.	.	2C/	.	.	.	.	.	2e/	.
.	.	2D\	.	.	.	2F/	.	[2B/	.
=44	=44	=44	=44	=44	=44	=44	=44	=44	=44
0.r	.	1E	.	0.r	.	1G	.	4B/]	.
.	.	.	.	.	.	.	.	4A/	.
.	.	.	.	.	.	.	.	2B/	.
.	.	2AA/	.	.	.	1A	-sti	2c/	.
.	.	2C/	.	.	.	.	.	1A	.
.	.	1BB	.	.	.	1r	.	.	.
.	.	.	.	.	.	.	.	2G#i/	.
=45	=45	=45	=45	=45	=45	=45	=45	=45	=45
0.r	.	0.AA	-sti	0.r	.	1A	Chri-	1A	-sti
.	.	.	.	.	.	2A/	-sti	1r	.
.	.	.	.	.	.	2G/	.	.	.
.	.	.	.	.	.	1E	nos	1e	nos
=46	=46	=46	=46	=46	=46	=46	=46	=46	=46
0.r	.	1r	.	0.r	.	2G/	ra-	2e/	ra-
.	.	.	.	.	.	2A/	-di-	2e/	-di-
.	.	1r	.	.	.	1B	-en-	1d	-en-
.	.	1A	nos	.	.	1A	-tem	1c	-tem
=47	=47	=47	=47	=47	=47	=47	=47	=47	=47
0.r	.	2A\	ra-	0.r	.	0.r	.	2r	.
.	.	2A\	-di-	.	.	.	.	2.f/	fe-
.	.	1G	-en-	.	.	.	.	.	.
.	.	.	.	.	.	.	.	4e/	.
.	.	.	.	.	.	.	.	2e/	-li-
.	.	1F	-tem	.	.	.	.	2f/	-ci-
.	.	.	.	.	.	.	.	[2a/	-ta-
=48	=48	=48	=48	=48	=48	=48	=48	=48	=48
0.r	.	2r	.	0.r	.	0.r	.	2a/]	.
.	.	2.F\	fe-	.	.	.	.	2f/	.
.	.	.	.	.	.	.	.	1g	.
.	.	4E\	.	.	.	.	.	.	.
.	.	2E\	-li-	.	.	.	.	.	.
.	.	2F\	-ci-	.	.	.	.	1c	-tem
.	.	[2A\	-ta-	.	.	.	.	.	.
=49	=49	=49	=49	=49	=49	=49	=49	=49	=49
0.r	.	2A\]	.	0.r	.	0.r	.	2r	.
.	.	2F\	.	.	.	.	.	1d	scan-
.	.	1G	.	.	.	.	.	.	.
.	.	.	.	.	.	.	.	2d/	-de-
.	.	1C	-tem	.	.	.	.	4e/	-re
.	.	.	.	.	.	.	.	4f/	.
.	.	.	.	.	.	.	.	2g/	.
=50	=50	=50	=50	=50	=50	=50	=50	=50	=50
0.r	.	2r	.	0.r	.	0.r	.	2e/	cae-
.	.	2D\	scan-	.	.	.	.	2f/	.
.	.	2C/	-de-	.	.	.	.	4e/	.
.	.	.	.	.	.	.	.	4d/	.
.	.	2D\	-re	.	.	.	.	1d	.
.	.	1E	cae-	.	.	.	.	.	.
.	.	.	.	.	.	.	.	2c#i/	.
=51	=51	=51	=51	=51	=51	=51	=51	=51	=51
0.r	.	0D	-li,	0.r	.	1d	sed	1d	-li,
.	.	.	.	.	.	1d	qui-	1r	.
.	.	1r	.	.	.	1d	-a	2.f/	sed
.	.	.	.	.	.	.	.	4e/	.
=52	=52	=52	=52	=52	=52	=52	=52	=52	=52
0.r	.	0.r	.	0.r	.	2.d\	ter-	2f/	qui-
.	.	.	.	.	.	.	.	2.a/	-a
.	.	.	.	.	.	4c\	.	.	.
.	.	.	.	.	.	2B\	.	.	.
.	.	.	.	.	.	.	.	4g/	.
.	.	.	.	.	.	2A/	.	2f/	.
.	.	.	.	.	.	2G/	.	2e/	ter-
.	.	.	.	.	.	2B\	-ri-	2d/	-ri-
=53	=53	=53	=53	=53	=53	=53	=53	=53	=53
0.r	.	0.r	.	0.r	.	2A/	-bi-	2e/	-bi-
.	.	.	.	.	.	2c\	-li	2e/	-li
.	.	.	.	.	.	2B\	vi-	2g/	vi-
.	.	.	.	.	.	2A/	.	2f/	.
.	.	.	.	.	.	2.c\	-ci-	2e/	-ci-
.	.	.	.	.	.	.	.	2g/	.
.	.	.	.	.	.	4B\	.	.	.
=54	=54	=54	=54	=54	=54	=54	=54	=54	=54
0.r	.	0.r	.	0.r	.	2A/	-o-	2f/	-o-
.	.	.	.	.	.	2G/	-rum	1e	-rum
.	.	.	.	.	.	2A/	mol-	.	.
.	.	.	.	.	.	2F/	.	1d	mol-
.	.	.	.	.	.	1E	.	.	.
.	.	.	.	.	.	.	.	2c#i/	.
=55	=55	=55	=55	=55	=55	=55	=55	=55	=55
0.r	.	0.r	.	0.r	.	1D	-le	0d	-le
.	.	.	.	.	.	2r	.	.	.
.	.	.	.	.	.	2G/	re-	.	.
.	.	.	.	.	.	2F/	-fer-	2r	.
.	.	.	.	.	.	2G/	-ri	2d/	re-
=56	=56	=56	=56	=56	=56	=56	=56	=56	=56
0.r	.	0.r	.	0.r	.	2A/	pos-	2c/	-fer-
.	.	.	.	.	.	4G/	-su-	2d/	-ri
.	.	.	.	.	.	4F/	.	.	.
.	.	.	.	.	.	1E	-mus	2e/	pos-
.	.	.	.	.	.	.	.	4d/	-su-
.	.	.	.	.	.	.	.	4c/	.
.	.	.	.	.	.	2r	.	1B	-mus
.	.	.	.	.	.	2G/	hanc	.	.
=57	=57	=57	=57	=57	=57	=57	=57	=57	=57
0.r	.	0.r	.	0.r	.	2.A/	.	1r	.
.	.	.	.	.	.	4B\	.	.	.
.	.	.	.	.	.	2c\	.	2.e/	hanc
.	.	.	.	.	.	2A/	.	.	.
.	.	.	.	.	.	.	.	4f/	.
.	.	.	.	.	.	2B\	.	2g/	.
.	.	.	.	.	.	2c\	.	2e/	.
=58	=58	=58	=58	=58	=58	=58	=58	=58	=58
0.r	.	0.r	.	0.r	.	2d\	di-	2f/	di-
.	.	.	.	.	.	4c\	.	1a	.
.	.	.	.	.	.	4B\	.	.	.
.	.	.	.	.	.	1A	-gne	.	.
.	.	.	.	.	.	.	.	4g/	.
.	.	.	.	.	.	.	.	4f/	.
.	.	.	.	.	.	2r	.	1e	-gne
.	.	.	.	.	.	2c\	can-	.	.
=59	=59	=59	=59	=59	=59	=59	=59	=59	=59
0.r	.	0.r	.	0.r	.	2d\	-ti-	2r	.
.	.	.	.	.	.	2c\	-ca	2e/	can-
.	.	.	.	.	.	2B\	por-	2d/	-ti-
.	.	.	.	.	.	1e	-ri-	2c/	-ca
.	.	.	.	.	.	.	.	2B/	por-
.	.	.	.	.	.	2c\	.	[2e/	-ri-
=60	=60	=60	=60	=60	=60	=60	=60	=60	=60
0.r	.	0.r	.	0.r	.	2d\	.	4e/]	.
.	.	.	.	.	.	.	.	4f/	.
.	.	.	.	.	.	2B\	.	2.g/	.
.	.	.	.	.	.	2A/	.	.	.
.	.	.	.	.	.	.	.	4f/	.
.	.	.	.	.	.	1d	.	2f/	.
.	.	.	.	.	.	.	.	1e	-ge-
.	.	.	.	.	.	2c#i\	-ge-	.	.
=61	=61	=61	=61	=61	=61	=61	=61	=61	=61
1.D	hinc	2.A\	hinc	[0.A	in-	1d	-re	1d	-re
.	.	4G\	.	.	.	.	.	.	.
.	.	2F\	.	.	.	1r	.	2r	.
2AA/	ve-	2E\	ve-	.	.	.	.	2c/	e-
2D\	-ni-	2D\	-ni-	.	.	1r	.	2d/	-xi-
2C/	-am	2AA/	-am	.	.	.	.	2e/	-ge-
=62	=62	=62	=62	=62	=62	=62	=62	=62	=62
2D\	la-	2r	.	0.A]	.	0.r	.	2f/	-re
2C/	.	2AA/	la-	.	.	.	.	1e	cun-
2.AA/	.	2.C/	.	.	.	.	.	.	.
.	.	.	.	.	.	.	.	2.a/	.
4BB/	.	4D\	.	.	.	.	.	.	.
2C/	.	2E\	.	.	.	.	.	.	.
.	.	.	.	.	.	.	.	4g/	.
2D\	-psis	2D\	-psis	.	.	.	.	2f/	.
=63	=63	=63	=63	=63	=63	=63	=63	=63	=63
2C/	pro-	2.AA/	pro-	0.A	-ter	0.r	.	2e/	-ctis
2D\	.	.	.	.	.	.	.	2f/	ut
.	.	4BB/	.	.	.	.	.	.	.
2AA/	.	2C/	.	.	.	.	.	2e/	ro-
2FF/	.	1D	-su-	.	.	.	.	2d/	-gi-
2DD/	.	.	.	.	.	.	.	2f/	-ta-
2AA/	-su-	2C/	.	.	.	.	.	2e/	.
=64	=64	=64	=64	=64	=64	=64	=64	=64	=64
2C/	.	2E\	.	[0.G	spi-	0.r	.	2c/	.
2BB/	.	2D\	.	.	.	.	.	2d/	.
2C/	.	2C/	.	.	.	.	.	2e/	.
1GG	-is	2BB/	.	.	.	.	.	2d/	-tu
.	.	1D	-is	.	.	.	.	2r	.
2GG/	e-	.	.	.	.	.	.	2d/	ro-
=65	=65	=65	=65	=65	=65	=65	=65	=65	=65
2BB/	-xi-	1r	.	1G]	.	1r	.	2d/	-gi-
2C/	-ge-	.	.	.	.	.	.	2e/	.
1D	-re	0A	com-	0F	.	1r	.	2.f/	-ta-
.	.	.	.	.	.	.	.	4e/	.
2r	.	.	.	.	.	1d	ut	2d/	-tu
2D\	cun-	.	.	.	.	.	.	2d/	tu-
=66	=66	=66	=66	=66	=66	=66	=66	=66	=66
1AA	.	1A	-pla-	1E	.	2e\	ro-	1c	-o
.	.	.	.	.	.	4d\	-gi-	.	.
.	.	.	.	.	.	4c\	.	.	.
0E	.	1G	-ce-	0G	.	2B\	-ta-	2r	.
.	.	.	.	.	.	2c\	.	2e/	com-
.	.	1E	-ant	.	.	2.B\	.	2e/	-pla-
.	.	.	.	.	.	.	.	2e/	-ce-
.	.	.	.	.	.	4A/	.	.	.
=67	=67	=67	=67	=67	=67	=67	=67	=67	=67
0AA	-ctis	1E	Do-	0A	.	2A/	.	2c/	-ant
.	.	.	.	.	.	4G/	.	1e	.
.	.	.	.	.	.	4F/	.	.	.
.	.	1C	.	.	.	1E	-tu	.	.
.	.	.	.	.	.	.	.	2.e/	Do-
1AA	com-	2E\	.	1A	-nas	1C	tu-	.	.
.	.	.	.	.	.	.	.	4d/	.
.	.	2F\	.	.	.	.	.	2c/	.
=68	=68	=68	=68	=68	=68	=68	=68	=68	=68
1GG	.	2G\	.	0.r	.	2D/	.	2B/	.
.	.	1D	.	.	.	2G/	.	2G/	.
1D	-pla-	.	.	.	.	2F/	.	2.A/	.
.	.	2F\	.	.	.	1A	-o	.	.
.	.	.	.	.	.	.	.	4B/	.
2AA/	.	1E	.	.	.	.	.	4c/	.
.	.	.	.	.	.	.	.	4d/	.
2C/	.	.	.	.	.	2A/	com-	2e/	.
=69	=69	=69	=69	=69	=69	=69	=69	=69	=69
2D\	.	2D\	.	0.r	.	2F/	.	2f/	.
2E\	-ce-	2C/	.	.	.	1G	-pla-	2.e/	.
2C/	-ant	2E\	.	.	.	.	.	.	.
.	.	.	.	.	.	.	.	4d/	.
2D\	Do-	1A	.	.	.	2F/	.	1d	.
1AA	-mi-	.	.	.	.	1E	-ce-	.	.
.	.	2A\	.	.	.	.	.	2c#i/	.
=70	=70	=70	=70	=70	=70	=70	=70	=70	=70
1DD	-no.	1F	.	0.r	.	1D	-ant	1d	.
1r	.	1D	.	.	.	2A/	Do-	1f	-mi-
.	.	.	.	.	.	1A	-mi-	.	.
1r	.	2C/	-mi-	.	.	.	.	2e/	.
.	.	2D\	.	.	.	2F/	.	2d/	.
=71	=71	=71	=71	=71	=71	=71	=71	=71	=71
*	*	*^	*	*	*	*	*	*	*
0.AAl	no.	0.AAl\	0.El/	-no.	0.Al	nas	0.El	-no.	0.c#l	-no.
*	*	*v	*v	*	*	*	*	*	*	*
!!LO:LB:i:g=z
=72||	=72||	=72||	=72||	=72||	=72||	=72||	=72||	=72||	=72||
*>B	*>B	*>B	*>B	*>B	*>B	*>B	*>B	*>B	*>B
*clefF4	*	*clefF4	*	*clefGv2	*	*clefGv2	*	*clefG2	*
*k[]	*	*k[]	*	*k[]	*	*k[]	*	*k[]	*
*M2/1	*	*M2/1	*	*M2/1	*	*M2/1	*	*M2/1	*
*met(C|)	*	*met(C|)	*	*met(C|)	*	*met(C|)	*	*met(C|)	*
!!section: Carmina cadentem/Sic amica mea
!!!OMD: Carmina cadentem/Sic amica mea
0r	.	0r	.	0r	.	0A	Car-	1.e	Car-
.	.	.	.	.	.	.	.	2f/	.
=73	=73	=73	=73	=73	=73	=73	=73	=73	=73
0r	.	0r	.	0r	.	1.B	-mi-	1g	.
.	.	.	.	.	.	.	.	1g	-mi-
.	.	.	.	.	.	2c\	.	.	.
=74	=74	=74	=74	=74	=74	=74	=74	=74	=74
0r	.	0r	.	0r	.	1d	-na	1f	-na
.	.	.	.	.	.	1c	ca-	1e	ca-
=75	=75	=75	=75	=75	=75	=75	=75	=75	=75
0r	.	0r	.	0r	.	0d	-den-	1.f	-den-
.	.	.	.	.	.	.	.	2e/	.
=76	=76	=76	=76	=76	=76	=76	=76	=76	=76
1.AA	Car-	0E	Car-	[0A	sic	1.c#	-tem	0e	-tem
2BB/	.	.	.	.	.	2d\	.	.	.
=77	=77	=77	=77	=77	=77	=77	=77	=77	=77
1C	-mi-	1E	-mi-	0A_	.	1e	.	1r	.
1C	-na	1E	-na	.	.	1e	ti-	1e	ti-
=78	=78	=78	=78	=78	=78	=78	=78	=78	=78
1D	ca-	1F	ca-	0A_	.	1d	-bi	1A	-bi
1D	-den-	1F	-den-	.	.	1d	flo-	1d	flo-
=79	=79	=79	=79	=79	=79	=79	=79	=79	=79
0AA	-tem	0E	-tem	0A]	.	1.c	-ri-	1e	-ri-
.	.	.	.	.	.	.	.	2c/	-da
.	.	.	.	.	.	4B\	.	[2e/	pro-
.	.	.	.	.	.	4A/	.	.	.
=80	=80	=80	=80	=80	=80	=80	=80	=80	=80
0r	.	0r	.	0r	.	2G/	-da	4e/]	.
.	.	.	.	.	.	.	.	4d/	.
.	.	.	.	.	.	1A	pro-	2c/	.
.	.	.	.	.	.	.	.	1B	-spi-
.	.	.	.	.	.	2G/	.	.	.
=81	=81	=81	=81	=81	=81	=81	=81	=81	=81
0r	.	0r	.	0r	.	2A/	.	1A	-ce
.	.	.	.	.	.	2F/	-spi-	.	.
.	.	.	.	.	.	1E	-ce	1c	vir-
=82	=82	=82	=82	=82	=82	=82	=82	=82	=82
0r	.	0r	.	0r	.	2F/	vir-	2.d/	.
.	.	.	.	.	.	2G/	.	.	.
.	.	.	.	.	.	.	.	4c/	.
.	.	.	.	.	.	2B-i\	.	2d/	.
.	.	.	.	.	.	[2A/	.	2f/	.
=83	=83	=83	=83	=83	=83	=83	=83	=83	=83
0r	.	0r	.	0r	.	2A/]	.	2e/	.
.	.	.	.	.	.	2F/	.	1d	.
.	.	.	.	.	.	1E	.	.	.
.	.	.	.	.	.	.	.	2c#i/	.
=84	=84	=84	=84	=84	=84	=84	=84	=84	=84
1.D	vir-	0F	vir-	0A	a-	0D	-go,	0d	-go,
2C/	.	.	.	.	.	.	.	.	.
=85	=85	=85	=85	=85	=85	=85	=85	=85	=85
1BB	-go,	1D	-go,	1G	.	1r	.	1r	.
1AA	ma-	1E	ma-	1c	-mi-	1A	ma-	1e	ma-
=86	=86	=86	=86	=86	=86	=86	=86	=86	=86
1DD	-xi-	1F	-xi-	1d	-ca	1A	-xi-	1d	-xi-
1DD	-me	1D	-me	1d	me-	1A	-me	[1f	-me
=87	=87	=87	=87	=87	=87	=87	=87	=87	=87
0AA	de-	0E	.	0c	-a	0A	de-	2f/]	.
.	.	.	.	.	.	.	.	2e/	.
.	.	.	.	.	.	.	.	1e	de-
=88	=88	=88	=88	=88	=88	=88	=88	=88	=88
0r	.	0r	.	0r	.	1A	-flen-	1c	-flen-
.	.	.	.	.	.	[1c	.	1A	-te
=89	=89	=89	=89	=89	=89	=89	=89	=89	=89
0r	.	0r	.	0r	.	2c\]	.	1r	.
.	.	.	.	.	.	2B\	-te	.	.
.	.	.	.	.	.	1c	me	1e	me
=90	=90	=90	=90	=90	=90	=90	=90	=90	=90
0r	.	0r	.	0r	.	2d\	quo-	2f/	quo-
.	.	.	.	.	.	2e\	.	2g/	.
.	.	.	.	.	.	2c\	-que	1a	-que
.	.	.	.	.	.	2d\	pro-	.	.
=91	=91	=91	=91	=91	=91	=91	=91	=91	=91
0r	.	0r	.	0r	.	2.B\	-vi-	2g/	pro-
.	.	.	.	.	.	.	.	1g	-vi-
.	.	.	.	.	.	4G/	.	.	.
.	.	.	.	.	.	1A	-ci-	.	.
.	.	.	.	.	.	.	.	2f#i/	-ci-
=92	=92	=92	=92	=92	=92	=92	=92	=92	=92
0GG	-pro-	0G	pro-	0d	me-	0G	-o	0g	-o
=93	=93	=93	=93	=93	=93	=93	=93	=93	=93
1C	-spi-	1G	-spi-	0e	.	1r	.	1r	.
1C	-ce	1G	-ce	.	.	1G	me	1g	me
=94	=94	=94	=94	=94	=94	=94	=94	=94	=94
0C	vir-	0E	vir-	[0e	-a	1G	di-	1g	di-
.	.	.	.	.	.	1G	-gna-	1e	-gna-
=95	=95	=95	=95	=95	=95	=95	=95	=95	=95
0AA	-go,	0E	-go,	0e]	.	1.A	.	1.c	.
.	.	.	.	.	.	2B\	.	2d/	.
=96	=96	=96	=96	=96	=96	=96	=96	=96	=96
0r	.	0r	.	0r	.	1c	.	1e	.
.	.	.	.	.	.	2B\	.	2d/	.
.	.	.	.	.	.	[2d\	.	2B/	.
=97	=97	=97	=97	=97	=97	=97	=97	=97	=97
0r	.	0r	.	0r	.	4d\]	.	1d	.
.	.	.	.	.	.	4c\	.	.	.
.	.	.	.	.	.	2B\	.	.	.
.	.	.	.	.	.	1A	.	2c/	.
.	.	.	.	.	.	.	.	[2e/	.
=98	=98	=98	=98	=98	=98	=98	=98	=98	=98
0r	.	0r	.	0r	.	2G/	.	2e/]	.
.	.	.	.	.	.	2F/	.	2d/	.
.	.	.	.	.	.	1A	.	2c/	.
.	.	.	.	.	.	.	.	2f/	.
=99	=99	=99	=99	=99	=99	=99	=99	=99	=99
0r	.	0r	.	0r	.	2E/	.	2g/	.
.	.	.	.	.	.	2G/	.	1e	.
.	.	.	.	.	.	1F	.	.	.
.	.	.	.	.	.	.	.	2d/	.
=100	=100	=100	=100	=100	=100	=100	=100	=100	=100
0AA	ma-	1.A	ma-	1.e	in-	0E	-re	1e	-re
.	.	.	.	.	.	.	.	1r	.
.	.	2G\	-xi-	2d\	.	.	.	.	.
=101	=101	=101	=101	=101	=101	=101	=101	=101	=101
1AA	-xi-	1E	-me	1c	.	0A	tu-	1e	tu-
1DD	-me	1D	de-	1d	.	.	.	1f	.
=102	=102	=102	=102	=102	=102	=102	=102	=102	=102
1GG	de-	1D	-flen-	0B	-ter	0G	-os	1d	-os
1GG	-flen-	1BB	.	.	.	.	.	[1g	.
=103	=103	=103	=103	=103	=103	=103	=103	=103	=103
0DD	-te	0D	-te	0A	.	1r	.	2g/]	.
.	.	.	.	.	.	.	.	2f/	.
.	.	.	.	.	.	1A	bo-	1f	bo-
=104	=104	=104	=104	=104	=104	=104	=104	=104	=104
0r	.	0r	.	0r	.	1.c	.	1e	.
.	.	.	.	.	.	.	.	1a	.
.	.	.	.	.	.	2d\	.	.	.
=105	=105	=105	=105	=105	=105	=105	=105	=105	=105
0r	.	0r	.	0r	.	1e	.	2.g/	.
.	.	.	.	.	.	.	.	4f/	.
.	.	.	.	.	.	2c\	.	2e/	.
.	.	.	.	.	.	[2d\	.	2f/	.
=106	=106	=106	=106	=106	=106	=106	=106	=106	=106
0r	.	0r	.	0r	.	4d\]	.	2e/	.
.	.	.	.	.	.	4c\	.	.	.
.	.	.	.	.	.	2B\	.	2.d/	.
.	.	.	.	.	.	2A/	.	.	.
.	.	.	.	.	.	.	.	4c/	.
.	.	.	.	.	.	2B\	.	2d/	.
=107	=107	=107	=107	=107	=107	=107	=107	=107	=107
0r	.	0r	.	0r	.	2c\	.	2e/	.
.	.	.	.	.	.	1A	.	2c/	.
.	.	.	.	.	.	.	.	1B	.
.	.	.	.	.	.	2G#i/	.	.	.
=108	=108	=108	=108	=108	=108	=108	=108	=108	=108
1AA	me	1E	me	0A	fi-	1A	-stes	0A	-stes
1D	quo-	1F	quo-	.	.	2r	.	.	.
.	.	.	.	.	.	2B\	cun-	.	.
=109	=109	=109	=109	=109	=109	=109	=109	=109	=109
1C	-que	1E	-que	1A	-li-	1c	.	0r	.
1BB	pro-	1D	pro-	1G	.	[1d	.	.	.
=110	=110	=110	=110	=110	=110	=110	=110	=110	=110
1AA	-vi-	1E	-vi-	[0A	-as,	1d]	.	0e	cun-
1AA	-ci-	1E	-ci-	.	.	1c#i	.	.	.
=111	=111	=111	=111	=111	=111	=111	=111	=111	=111
0DD	-o	0D	-o	0A]	.	1.d	-cros	1.f	-cros
.	.	.	.	.	.	4c\	.	2d/	.
.	.	.	.	.	.	4B\	.	.	.
=112	=112	=112	=112	=112	=112	=112	=112	=112	=112
0r	.	0r	.	0r	.	1A	su-	1f	su-
.	.	.	.	.	.	2G/	.	1e	-pe-
.	.	.	.	.	.	2c\	.	.	.
=113	=113	=113	=113	=113	=113	=113	=113	=113	=113
0r	.	0r	.	0r	.	2B\	-pe-	2d/	-ra-
.	.	.	.	.	.	1A	-ra-	2c/	.
.	.	.	.	.	.	.	.	1e	.
.	.	.	.	.	.	2G/	.	.	.
=114	=114	=114	=114	=114	=114	=114	=114	=114	=114
0r	.	0r	.	0r	.	2A/	.	2f/	.
.	.	.	.	.	.	2E/	.	2g/	.
.	.	.	.	.	.	2D/	.	2f/	.
.	.	.	.	.	.	[2G/	.	[2e/	.
=115	=115	=115	=115	=115	=115	=115	=115	=115	=115
0r	.	0r	.	0r	.	2G/]	.	2e/]	.
.	.	.	.	.	.	2F/	.	1d	.
.	.	.	.	.	.	1E	.	.	.
.	.	.	.	.	.	.	.	2c#i/	.
=116	=116	=116	=116	=116	=116	=116	=116	=116	=116
0D	me	0F	me	0A	fi-	1D	-re	0d	-re
.	.	.	.	.	.	1F	.	.	.
=117	=117	=117	=117	=117	=117	=117	=117	=117	=117
1E	di-	1E	di-	1G	.	0G	.	0r	.
1C	.	[1E	-gna-	1E	.	.	.	.	.
=118	=118	=118	=118	=118	=118	=118	=118	=118	=118
0BB	-gna-	1E]	.	0G	-li-	0r	.	1d	et
.	.	1D	.	.	.	.	.	1d	te
=119	=119	=119	=119	=119	=119	=119	=119	=119	=119
0AA	-re	0E	-re	0A	-as,	0A	et	1c#	lau-
.	.	.	.	.	.	.	.	1c#i	-da-
=120	=120	=120	=120	=120	=120	=120	=120	=120	=120
0r	.	0r	.	0r	.	0B	te	1d	-re
.	.	.	.	.	.	.	.	1d	va-
=121	=121	=121	=121	=121	=121	=121	=121	=121	=121
0r	.	0r	.	0r	.	1.c	lau-	2e/	.
.	.	.	.	.	.	.	.	2f/	.
.	.	.	.	.	.	.	.	[1g	.
.	.	.	.	.	.	2d\	.	.	.
=122	=122	=122	=122	=122	=122	=122	=122	=122	=122
0r	.	0r	.	0r	.	1e	-da-	2g/]	.
.	.	.	.	.	.	.	.	2f/	.
.	.	.	.	.	.	1d	-re	1f	.
=123	=123	=123	=123	=123	=123	=123	=123	=123	=123
0r	.	0r	.	0r	.	1B	va-	1d	.
.	.	.	.	.	.	1G	.	[1e	.
=124	=124	=124	=124	=124	=124	=124	=124	=124	=124
0r	.	0r	.	0r	.	1A	.	2e/]	.
.	.	.	.	.	.	.	.	4d/	.
.	.	.	.	.	.	.	.	4c/	.
.	.	.	.	.	.	2G/	.	1B	.
.	.	.	.	.	.	2F/	.	.	.
=125	=125	=125	=125	=125	=125	=125	=125	=125	=125
0r	.	0r	.	0r	.	1E	.	1.c	.
.	.	.	.	.	.	1A	.	.	.
.	.	.	.	.	.	.	.	2A/	.
=126	=126	=126	=126	=126	=126	=126	=126	=126	=126
0r	.	0r	.	0r	.	1G	.	1B	.
.	.	.	.	.	.	1A	.	2A/	.
.	.	.	.	.	.	.	.	4G/	.
.	.	.	.	.	.	.	.	4F/	.
=127	=127	=127	=127	=127	=127	=127	=127	=127	=127
0r	.	0r	.	0r	.	0c	.	1E	.
.	.	.	.	.	.	.	.	[1A	.
=128	=128	=128	=128	=128	=128	=128	=128	=128	=128
0r	.	0r	.	0r	.	0B	-le-	2A/]	.
.	.	.	.	.	.	.	.	2G#i/	.
.	.	.	.	.	.	.	.	2G#i/	-le-
.	.	.	.	.	.	.	.	2F#i/	.
=129	=129	=129	=129	=129	=129	=129	=129	=129	=129
1.AA	tu-	1E	tu-	0r	.	0A	-am	0A	-am
.	.	1E	-os	.	.	.	.	.	.
2GG/	-os	.	.	.	.	.	.	.	.
=130	=130	=130	=130	=130	=130	=130	=130	=130	=130
1FF	bo-	1D	bo-	0r	.	0r	.	0r	.
1EE	-stes	1E	-stes	.	.	.	.	.	.
=131	=131	=131	=131	=131	=131	=131	=131	=131	=131
1AA	cun-	1F	cun-	0r	.	0r	.	0r	.
1C	.	[1A	.	.	.	.	.	.	.
=132	=132	=132	=132	=132	=132	=132	=132	=132	=132
0BB	.	2A\]	.	0r	.	0r	.	0r	.
.	.	2G\	.	.	.	.	.	.	.
.	.	2F\	.	.	.	.	.	.	.
.	.	2E\	.	.	.	.	.	.	.
=133	=133	=133	=133	=133	=133	=133	=133	=133	=133
1AA	-cros	1A	-cros	0r	.	0r	.	0r	.
[1C	su-	1A	su-	.	.	.	.	.	.
=134	=134	=134	=134	=134	=134	=134	=134	=134	=134
2C/]	.	1G	.	0r	.	0r	.	0r	.
2BB/	.	.	.	.	.	.	.	.	.
2C/	.	2E\	-pe-	.	.	.	.	.	.
[2D\	.	2F\	.	.	.	.	.	.	.
=135	=135	=135	=135	=135	=135	=135	=135	=135	=135
4D\]	.	2E\	-ra-	0r	.	0r	.	0r	.
4C/	.	.	.	.	.	.	.	.	.
2BB/	.	1G	.	.	.	.	.	.	.
1AA	-pe-	.	.	.	.	.	.	.	.
.	.	2F\	.	.	.	.	.	.	.
=136	=136	=136	=136	=136	=136	=136	=136	=136	=136
1GG	-ra-	2E\	.	0r	.	0r	.	0r	.
.	.	2D\	.	.	.	.	.	.	.
1AA	.	2F\	.	.	.	.	.	.	.
.	.	[2E\	.	.	.	.	.	.	.
=137	=137	=137	=137	=137	=137	=137	=137	=137	=137
2FF/	.	4E\]	.	0r	.	0r	.	0r	.
.	.	4D\	.	.	.	.	.	.	.
2DD/	.	1D	.	.	.	.	.	.	.
1EE	.	.	.	.	.	.	.	.	.
.	.	2C#i/	.	.	.	.	.	.	.
=138	=138	=138	=138	=138	=138	=138	=138	=138	=138
0DD	-re	0D	-re	0r	.	1.A	ge-	1.d	ge-
.	.	.	.	.	.	2G/	.	2e/	.
=139	=139	=139	=139	=139	=139	=139	=139	=139	=139
0r	.	0r	.	0r	.	1A	.	1f	.
.	.	.	.	.	.	1E	.	1g	.
=140	=140	=140	=140	=140	=140	=140	=140	=140	=140
0r	.	0r	.	0r	.	1A	.	1e	.
.	.	.	.	.	.	1c	.	[1a	.
=141	=141	=141	=141	=141	=141	=141	=141	=141	=141
0r	.	0r	.	0r	.	0B	-ni-	2a/]	.
.	.	.	.	.	.	.	.	2g#i/	.
.	.	.	.	.	.	.	.	2g#i/	-ni-
.	.	.	.	.	.	.	.	2f#i/	.
=142	=142	=142	=142	=142	=142	=142	=142	=142	=142
0r	.	0r	.	0r	.	1A	-trix	1a	-trix
.	.	.	.	.	.	1c	que	1a	que
=143	=143	=143	=143	=143	=143	=143	=143	=143	=143
0r	.	0r	.	0r	.	2B\	be-	2g/	be-
.	.	.	.	.	.	1d	.	2f/	.
.	.	.	.	.	.	.	.	1e	.
.	.	.	.	.	.	2c\	.	.	.
=144	=144	=144	=144	=144	=144	=144	=144	=144	=144
0r	.	0r	.	0r	.	2B\	-a-	2d/	-a-
.	.	.	.	.	.	2A/	.	2c/	.
.	.	.	.	.	.	2F/	.	1d	.
.	.	.	.	.	.	[2G/	.	.	.
=145	=145	=145	=145	=145	=145	=145	=145	=145	=145
0r	.	0r	.	0r	.	2G/]	.	1e	.
.	.	.	.	.	.	1A	.	.	.
.	.	.	.	.	.	.	.	2f/	.
.	.	.	.	.	.	2G/	.	[2e/	.
=146	=146	=146	=146	=146	=146	=146	=146	=146	=146
0r	.	0r	.	0r	.	2A/	.	2e/]	.
.	.	.	.	.	.	2F/	.	1d	.
.	.	.	.	.	.	1E	.	.	.
.	.	.	.	.	.	.	.	2c#i/	.
=147	=147	=147	=147	=147	=147	=147	=147	=147	=147
0r	.	0r	.	0r	.	1.D	-te	0d	-te
.	.	.	.	.	.	2E/	.	.	.
=148	=148	=148	=148	=148	=148	=148	=148	=148	=148
0r	.	0r	.	0r	.	1F	.	1r	.
.	.	.	.	.	.	1G	cor-	1d	cor-
=149	=149	=149	=149	=149	=149	=149	=149	=149	=149
0r	.	0r	.	0r	.	1B-	-po-	1d	-po-
.	.	.	.	.	.	1A	-re	1c	-re
=150	=150	=150	=150	=150	=150	=150	=150	=150	=150
0r	.	0r	.	0r	.	1r	.	1B	.
.	.	.	.	.	.	1d	di-	1G	di-
=151	=151	=151	=151	=151	=151	=151	=151	=151	=151
0r	.	0r	.	0r	.	1d	-vi-	1B	-vi-
.	.	.	.	.	.	1c	.	[1e	.
=152	=152	=152	=152	=152	=152	=152	=152	=152	=152
0r	.	0r	.	0r	.	1B	.	2e/]	.
.	.	.	.	.	.	.	.	2d/	.
.	.	.	.	.	.	1G	.	[1d	.
=153	=153	=153	=153	=153	=153	=153	=153	=153	=153
0r	.	0r	.	0r	.	1B	.	1d]	.
.	.	.	.	.	.	[1e	.	1g	.
=154	=154	=154	=154	=154	=154	=154	=154	=154	=154
0r	.	0r	.	0r	.	2e\]	.	1f	.
.	.	.	.	.	.	2d\	.	.	.
.	.	.	.	.	.	[1d	.	1d	.
=155	=155	=155	=155	=155	=155	=155	=155	=155	=155
0r	.	0r	.	0r	.	1d]	.	1.f	.
.	.	.	.	.	.	1d	.	.	.
.	.	.	.	.	.	.	.	2e/	.
=156	=156	=156	=156	=156	=156	=156	=156	=156	=156
0r	.	0r	.	0r	.	1c	-na	0e	-na
.	.	.	.	.	.	1A	.	.	.
=157	=157	=157	=157	=157	=157	=157	=157	=157	=157
0r	.	0r	.	0r	.	0c	di-	1r	.
.	.	.	.	.	.	.	.	[1a	di-
=158	=158	=158	=158	=158	=158	=158	=158	=158	=158
0r	.	0r	.	0r	.	0B	-re-	1a]	.
.	.	.	.	.	.	.	.	1g	-re-
=159	=159	=159	=159	=159	=159	=159	=159	=159	=159
0r	.	0r	.	0r	.	0A	.	1f	.
.	.	.	.	.	.	.	.	2e/	.
.	.	.	.	.	.	.	.	[2e/	-cto
=160	=160	=160	=160	=160	=160	=160	=160	=160	=160
0r	.	0r	.	0r	.	1G	.	4e/]	.
.	.	.	.	.	.	.	.	4d/	.
.	.	.	.	.	.	.	.	1d	.
.	.	.	.	.	.	2F/	-cto	.	.
.	.	.	.	.	.	2G/	.	2B/	.
=161	=161	=161	=161	=161	=161	=161	=161	=161	=161
0r	.	0r	.	0r	.	1A	tra-	2.c#/	tra-
.	.	.	.	.	.	.	.	4d/	.
.	.	.	.	.	.	2G/	.	4e/	.
.	.	.	.	.	.	.	.	4f/	.
.	.	.	.	.	.	2B-\	.	2g/	.
=162	=162	=162	=162	=162	=162	=162	=162	=162	=162
0r	.	0r	.	0r	.	2A/	.	2f/	.
.	.	.	.	.	.	4G/	.	1a	.
.	.	.	.	.	.	4F/	.	.	.
.	.	.	.	.	.	1E	-mi-	.	.
.	.	.	.	.	.	.	.	2g/	-mi-
=163	=163	=163	=163	=163	=163	=163	=163	=163	=163
0r	.	0r	.	0r	.	2D/	-te	1f	-te
.	.	.	.	.	.	1A	do-	.	.
.	.	.	.	.	.	.	.	2e/	do-
.	.	.	.	.	.	2F/	.	2d/	.
=164	=164	=164	=164	=164	=164	=164	=164	=164	=164
0r	.	0r	.	0r	.	2G/	.	2.e/	.
.	.	.	.	.	.	2A/	.	.	.
.	.	.	.	.	.	.	.	4c/	.
.	.	.	.	.	.	2B\	.	4d/	.
.	.	.	.	.	.	.	.	4c/	.
.	.	.	.	.	.	2G/	.	2B/	.
=165	=165	=165	=165	=165	=165	=165	=165	=165	=165
0r	.	0r	.	0r	.	2.A/	.	2A/	.
.	.	.	.	.	.	.	.	2c/	.
.	.	.	.	.	.	4G/	.	.	.
.	.	.	.	.	.	2F/	.	2d/	.
.	.	.	.	.	.	2E/	.	2e/	.
=166	=166	=166	=166	=166	=166	=166	=166	=166	=166
0r	.	0r	.	0r	.	1F	.	2A/	.
.	.	.	.	.	.	.	.	1d	.
.	.	.	.	.	.	1E	.	.	.
.	.	.	.	.	.	.	.	2c#i/	.
=167	=167	=167	=167	=167	=167	=167	=167	=167	=167
0r	.	0r	.	0r	.	0D	-na	0d	-na
=168	=168	=168	=168	=168	=168	=168	=168	=168	=168
0r	.	0r	.	1.G	Si-	0r	.	1r	.
.	.	.	.	.	.	.	.	1d	Hac
.	.	.	.	2F/	.	.	.	.	.
=169	=169	=169	=169	=169	=169	=169	=169	=169	=169
0r	.	0r	.	1G	.	0r	.	1e	ma-
.	.	.	.	1A	-cut	.	.	1f	-la
=170	=170	=170	=170	=170	=170	=170	=170	=170	=170
0r	.	0r	.	2G/	li-	0r	.	2e/	ter-
.	.	.	.	1c	.	.	.	2c/	.
.	.	.	.	.	.	.	.	1d	-ge
.	.	.	.	2B\	.	.	.	.	.
=171	=171	=171	=171	=171	=171	=171	=171	=171	=171
0r	.	0r	.	1c	.	0r	.	1.e	ma-
.	.	.	.	1c	-li-	.	.	.	.
.	.	.	.	.	.	.	.	2d/	.
=172	=172	=172	=172	=172	=172	=172	=172	=172	=172
0r	.	0r	.	2c\	-um	0r	.	2e/	.
.	.	.	.	2d\	.	.	.	2f/	.
.	.	.	.	1B	.	.	.	1g	.
=173	=173	=173	=173	=173	=173	=173	=173	=173	=173
0r	.	0r	.	0A	.	0r	.	1a	.
.	.	.	.	.	.	.	.	1f	.
=174	=174	=174	=174	=174	=174	=174	=174	=174	=174
0r	.	1.AA	Si-	0r	.	1.A	Hac	0e	-lis
.	.	2BB/	.	.	.	2G/	.	.	.
=175	=175	=175	=175	=175	=175	=175	=175	=175	=175
0r	.	1C	.	0r	.	1A	ma-	0r	.
.	.	1D	-cut	.	.	1B	-la	.	.
=176	=176	=176	=176	=176	=176	=176	=176	=176	=176
0r	.	2C/	li-	0r	.	1c	ter-	0r	.
.	.	1F	.	.	.	.	.	.	.
.	.	.	.	.	.	2d\	.	.	.
.	.	2E\	.	.	.	2c\	.	.	.
=177	=177	=177	=177	=177	=177	=177	=177	=177	=177
0r	.	1F	.	0r	.	1.A	-ge	0r	.
.	.	1F	-li-	.	.	.	.	.	.
.	.	.	.	.	.	[2d\	ma-	.	.
=178	=178	=178	=178	=178	=178	=178	=178	=178	=178
0r	.	2F\	-um	0r	.	2d\]	.	0r	.
.	.	2G\	.	.	.	2B\	.	.	.
.	.	1E	.	.	.	1c#i	.	.	.
=179	=179	=179	=179	=179	=179	=179	=179	=179	=179
0r	.	0D	.	0A	in-	0d	-lis	0f	stel-
=180	=180	=180	=180	=180	=180	=180	=180	=180	=180
0r	.	0r	.	1A	-ter	0r	.	1e	-la
.	.	.	.	1G	.	.	.	[1e	Ma-
=181	=181	=181	=181	=181	=181	=181	=181	=181	=181
0r	.	0r	.	1E	spi-	0r	.	2e/]	.
.	.	.	.	.	.	.	.	4d/	.
.	.	.	.	.	.	.	.	4c/	.
.	.	.	.	1G	.	.	.	1B	-ri-
=182	=182	=182	=182	=182	=182	=182	=182	=182	=182
0r	.	0r	.	1A	-nas	0r	.	1c	-a
.	.	.	.	2A/	spi-	.	.	2c/	ma-
.	.	.	.	2B\	.	.	.	2d/	.
=183	=183	=183	=183	=183	=183	=183	=183	=183	=183
0r	.	0r	.	2c\	.	0r	.	2e/	.
.	.	.	.	1A	.	.	.	2c/	.
.	.	.	.	.	.	.	.	1B	.
.	.	.	.	2G#i/	.	.	.	.	.
=184	=184	=184	=184	=184	=184	=184	=184	=184	=184
0r	.	0A	in-	0A	-nas	0c	stel-	0A	-ris,
=185	=185	=185	=185	=185	=185	=185	=185	=185	=185
0r	.	1A	-ter	0r	.	1c	-la	0r	.
.	.	1G	.	.	.	1B	Ma-	.	.
=186	=186	=186	=186	=186	=186	=186	=186	=186	=186
0r	.	1E	spi-	0r	.	1G	-ri-	0r	.
.	.	1C	.	.	.	1A	.	.	.
=187	=187	=187	=187	=187	=187	=187	=187	=187	=187
0r	.	1D	-nas	0r	.	1A	-a	0r	.
.	.	2D\	spi-	.	.	2F/	ma-	.	.
.	.	2E\	.	.	.	2G/	.	.	.
=188	=188	=188	=188	=188	=188	=188	=188	=188	=188
0r	.	2F\	.	0r	.	2A/	.	0r	.
.	.	1D	.	.	.	2F/	.	.	.
.	.	.	.	.	.	1E	.	.	.
.	.	2C#i/	.	.	.	.	.	.	.
=189	=189	=189	=189	=189	=189	=189	=189	=189	=189
0r	.	0D	-nas	0A	sic	0D	-ris,	1.d	stel-
.	.	.	.	.	.	.	.	2e/	.
=190	=190	=190	=190	=190	=190	=190	=190	=190	=190
0r	.	0r	.	1A	a-	0r	.	1f	.
.	.	.	.	1G	-mi-	.	.	1g	.
=191	=191	=191	=191	=191	=191	=191	=191	=191	=191
0r	.	0r	.	1c	-ca	0r	.	1.a	-li
.	.	.	.	1d	.	.	.	.	.
.	.	.	.	.	.	.	.	2g/	.
=192	=192	=192	=192	=192	=192	=192	=192	=192	=192
0r	.	0r	.	1d	me-	0r	.	1f	.
.	.	.	.	1c	.	.	.	1e	.
=193	=193	=193	=193	=193	=193	=193	=193	=193	=193
0r	.	0r	.	1d	.	0r	.	2d/	.
.	.	.	.	.	.	.	.	2f/	.
.	.	.	.	[1e	.	.	.	2e/	.
.	.	.	.	.	.	.	.	[2g/	.
=194	=194	=194	=194	=194	=194	=194	=194	=194	=194
0r	.	0r	.	2e\]	.	0r	.	4g/]	.
.	.	.	.	.	.	.	.	4f/	.
.	.	.	.	2c\	.	.	.	2e/	.
.	.	.	.	2d\	.	.	.	2f/	.
.	.	.	.	4c\	.	.	.	4e/	fe-
.	.	.	.	4d\	.	.	.	4d/	.
=195	=195	=195	=195	=195	=195	=195	=195	=195	=195
0r	.	0AA 0A	sic	0e	-a	1.A	stel-	0c	-ri
.	.	.	.	.	.	2G/	.	.	.
=196	=196	=196	=196	=196	=196	=196	=196	=196	=196
0r	.	1D	a-	0r	.	2F/	.	0r	.
.	.	.	.	.	.	2D/	.	.	.
.	.	1C	-mi-	.	.	1E	-li	.	.
=197	=197	=197	=197	=197	=197	=197	=197	=197	=197
0r	.	1F	-ca	0r	.	2r	.	0r	.
.	.	.	.	.	.	2A/	fe-	.	.
.	.	1G	.	.	.	2.B\	.	.	.
.	.	.	.	.	.	4c\	.	.	.
=198	=198	=198	=198	=198	=198	=198	=198	=198	=198
0r	.	1G	me-	0r	.	2d\	.	0r	.
.	.	.	.	.	.	1e	.	.	.
.	.	1F	.	.	.	.	.	.	.
.	.	.	.	.	.	4d\	.	.	.
.	.	.	.	.	.	4c\	.	.	.
=199	=199	=199	=199	=199	=199	=199	=199	=199	=199
0r	.	1G	.	0r	.	1B	.	0r	.
.	.	1A	.	.	.	2A/	.	.	.
.	.	.	.	.	.	[2c\	.	.	.
=200	=200	=200	=200	=200	=200	=200	=200	=200	=200
0r	.	2A\	.	0r	.	2c\]	.	0r	.
.	.	2F\	.	.	.	2d\	.	.	.
.	.	2G\	.	.	.	1B	.	.	.
.	.	4F\	.	.	.	.	.	.	.
.	.	4G\	.	.	.	.	.	.	.
=201	=201	=201	=201	=201	=201	=201	=201	=201	=201
0r	.	0A	-a	0e	in-	0A	-ri	0c#	re-
=202	=202	=202	=202	=202	=202	=202	=202	=202	=202
0r	.	0r	.	1d	-ter	0r	.	1d	-gi-
.	.	.	.	1c	.	.	.	1e	-na
=203	=203	=203	=203	=203	=203	=203	=203	=203	=203
0r	.	0r	.	1d	fi-	0r	.	1f	mi-
.	.	.	.	1e	.	.	.	2g/	.
.	.	.	.	.	.	.	.	[2e/	.
=204	=204	=204	=204	=204	=204	=204	=204	=204	=204
0r	.	0r	.	2c\	.	0r	.	2e/]	.
.	.	.	.	2A/	.	.	.	1a	.
.	.	.	.	1B	-li-	.	.	.	.
.	.	.	.	.	.	.	.	2g/	.
=205	=205	=205	=205	=205	=205	=205	=205	=205	=205
0r	.	0A	in-	0A	-as,	1.A	re-	2a/	.
.	.	.	.	.	.	.	.	4g/	.
.	.	.	.	.	.	.	.	4f/	.
.	.	.	.	.	.	.	.	2e/	.
.	.	.	.	.	.	2B\	.	2d/	.
=206	=206	=206	=206	=206	=206	=206	=206	=206	=206
0r	.	1A	-ter	0r	.	1c	-gi-	1e	.
.	.	1B	.	.	.	1d	-na	1d	-cans
=207	=207	=207	=207	=207	=207	=207	=207	=207	=207
0r	.	1G	fi-	0r	.	2d\	mi-	0r	.
.	.	.	.	.	.	2e\	.	.	.
.	.	1A	.	.	.	2c\	.	.	.
.	.	.	.	.	.	[2e\	.	.	.
=208	=208	=208	=208	=208	=208	=208	=208	=208	=208
0r	.	2F\	.	0r	.	2e\]	.	0r	.
.	.	2D\	.	.	.	1d	.	.	.
.	.	1E	-li-	.	.	.	.	.	.
.	.	.	.	.	.	2c#i\	.	.	.
=209	=209	=209	=209	=209	=209	=209	=209	=209	=209
0r	.	0D	-as,	1.A	in-	0d	-cans	1.f	quo-
.	.	.	.	2F/	.	.	.	2d/	.
=210	=210	=210	=210	=210	=210	=210	=210	=210	=210
0r	.	0r	.	2.G/	.	0r	.	2.e/	-que
.	.	.	.	4F/	.	.	.	4d/	.
.	.	.	.	2G/	.	.	.	2e/	.
.	.	.	.	2A/	.	.	.	2f/	.
=211	=211	=211	=211	=211	=211	=211	=211	=211	=211
0r	.	0r	.	1E	.	0r	.	2g/	lu-
.	.	.	.	.	.	.	.	1e	.
.	.	.	.	1F	.	.	.	.	.
.	.	.	.	.	.	.	.	2d/	.
=212	=212	=212	=212	=212	=212	=212	=212	=212	=212
0r	.	1.E	Sic	0E	-ter	0r	.	1e	-men
.	.	.	.	.	.	.	.	1e	or-
.	.	2C/	.	.	.	.	.	.	.
=213	=213	=213	=213	=213	=213	=213	=213	=213	=213
0r	.	1D	a-	1r	.	0r	.	1f	.
.	.	1C	.	1G	fi-	.	.	2e/	.
.	.	.	.	.	.	.	.	[2e/	.
=214	=214	=214	=214	=214	=214	=214	=214	=214	=214
0r	.	1AA	-mi-	1A	.	0r	.	2e/]	.
.	.	.	.	.	.	.	.	2c/	.
.	.	2BB/	-ca	1G	.	.	.	2d/	.
.	.	2C/	.	.	.	.	.	2e/	.
=215	=215	=215	=215	=215	=215	=215	=215	=215	=215
0r	.	2D\	me-	2F/	-li-	0r	.	2f/	.
.	.	2F\	.	1A	.	.	.	1d	.
.	.	1E	.	.	.	.	.	.	.
.	.	.	.	2G/	.	.	.	2c#i/	.
=216	=216	=216	=216	=216	=216	=216	=216	=216	=216
[0D	pel-	[0D	-a	0A	-as	0d	quo-	0d	-ti
=217	=217	=217	=217	=217	=217	=217	=217	=217	=217
0D]	.	0D]	.	0r	.	1d	-que	1r	.
.	.	.	.	.	.	1d	lu-	1d	pel-
=218	=218	=218	=218	=218	=218	=218	=218	=218	=218
1.GG	-li	[0D	me-	1.G	Sic	0B	-men	1d	-li
.	.	.	.	.	.	.	.	[1g	.
2AA/	.	.	.	2F/	.	.	.	.	.
=219	=219	=219	=219	=219	=219	=219	=219	=219	=219
1BB	.	1D]	.	1G	a-	1d	or-	2g/]	.
.	.	.	.	.	.	.	.	2f/	.
1C	.	1AA	-a	1A	-mi-	1c	-ti	1e	.
=220	=220	=220	=220	=220	=220	=220	=220	=220	=220
1E	.	0r	.	2G/	-ca	2c\	pel-	1c	.
.	.	.	.	1c	.	1G	.	.	.
1D	fe-	.	.	.	.	.	.	1d	fe-
.	.	.	.	2B\	.	2F/	.	.	.
=221	=221	=221	=221	=221	=221	=221	=221	=221	=221
1.C	-ri	1E	in-	1c	.	1G	-li	0e	-ri
.	.	1G	.	1c	me-	1G	fe-	.	.
2BB/	.	.	.	.	.	.	.	.	.
=222	=222	=222	=222	=222	=222	=222	=222	=222	=222
2AA/	.	1F	-ter	1c	-a	1A	.	1r	.
2FF/	.	.	.	.	.	.	.	.	.
1GG	.	1D	.	1B	a-	1B	-ri	1d	pe-
=223	=223	=223	=223	=223	=223	=223	=223	=223	=223
[0FF	pe-	1r	.	1A	-mi-	0c	pe-	1.f	.
.	.	[1F	fi-	1A	-ca	.	.	.	.
.	.	.	.	.	.	.	.	4e/	.
.	.	.	.	.	.	.	.	4d/	.
=224	=224	=224	=224	=224	=224	=224	=224	=224	=224
1FF]	.	1F]	.	1A	me-	1A	.	1c	.
1GG	.	1D	.	1G	.	1B	.	1B	.
=225	=225	=225	=225	=225	=225	=225	=225	=225	=225
1AA	.	1C	.	1E	-a	1c	.	1A	.
1BB-i	.	1D	.	1G	a-	1G	-nas	1d	.
=226	=226	=226	=226	=226	=226	=226	=226	=226	=226
0AA	.	0E	.	1A	-mi-	1r	.	2c#/	.
.	.	.	.	.	.	.	.	2d/	.
.	.	.	.	1A	-ca	1c	pe-	1e	.
=227	=227	=227	=227	=227	=227	=227	=227	=227	=227
0DD	-nas	1D	-li-	1A	me-	0d	.	0f	.
.	.	1F	.	1A	-a	.	.	.	.
=228	=228	=228	=228	=228	=228	=228	=228	=228	=228
1r	.	0E	.	1G	a-	0e	-nas	1g	.
1AA	pe-	.	.	1c	.	.	.	1e	.
=229	=229	=229	=229	=229	=229	=229	=229	=229	=229
0DD	.	0D	-as	1d	.	1r	.	0f	-nas
.	.	.	.	1d	-mi-	1A	gens	.	.
=230	=230	=230	=230	=230	=230	=230	=230	=230	=230
1AA	.	0r	.	1c	-ca	1.A	cun-	1e	pe-
1BB	.	.	.	1d	.	.	.	1d	.
.	.	.	.	.	.	2G/	.	.	.
=231	=231	=231	=231	=231	=231	=231	=231	=231	=231
[0C	-nas	0r	.	1e	.	1G	-cta	1.g	.
.	.	.	.	1e	me-	[1c	cun-	.	.
.	.	.	.	.	.	.	.	2e/	.
=232	=232	=232	=232	=232	=232	=232	=232	=232	=232
1C]	.	0r	.	1e	-a	2c\]	.	1g	-nas
.	.	.	.	.	.	2B\	.	.	.
1D	gens	.	.	1d	in-	1A	.	1f	gens
=233	=233	=233	=233	=233	=233	=233	=233	=233	=233
1E	cun-	0r	.	1c	.	1G	.	1e	.
1D	.	.	.	1d	.	2.A/	.	2r	.
.	.	.	.	.	.	.	.	2f/	cun-
.	.	.	.	.	.	4B\	.	.	.
=234	=234	=234	=234	=234	=234	=234	=234	=234	=234
2C/	.	0r	.	2A/	.	4c\	.	2e/	.
.	.	.	.	.	.	4d\	.	.	.
2AA/	.	.	.	2c\	.	1e	.	2.a/	.
1E	.	.	.	1B	.	.	.	.	.
.	.	.	.	.	.	.	.	4g/	.
.	.	.	.	.	.	2e\	.	[2g/	.
=235	=235	=235	=235	=235	=235	=235	=235	=235	=235
2F\	.	0r	.	1A	-ter	2c\	.	4g/]	.
.	.	.	.	.	.	.	.	4f/	.
2D\	.	.	.	.	.	2d\	.	2f/	.
2C/	.	.	.	1A	fi-	2e\	.	2e/	.
2AA/	.	.	.	.	.	[2c\	.	[2f/	.
=236	=236	=236	=236	=236	=236	=236	=236	=236	=236
2C/	.	0r	.	2G/	.	2c\]	.	4f/]	.
.	.	.	.	.	.	.	.	4e/	.
2D\	.	.	.	2F/	.	2A/	.	1d	.
1AA	-cta	.	.	1E	.	1A	-cta	.	.
.	.	.	.	.	.	.	.	2c/	.
=237	=237	=237	=237	=237	=237	=237	=237	=237	=237
1DD	det.	0D	A-	1D	.	0A	det.	1d	-cta
1D	A-	.	.	1F	.	.	.	1A	det.
=238	=238	=238	=238	=238	=238	=238	=238	=238	=238
2C/	.	1E	.	1E	.	1r	.	2r	.
2AA/	.	.	.	.	.	.	.	2c/	A-
1BB	.	1D	.	1G	-li-	1B	A-	2d/	.
.	.	.	.	.	.	.	.	4c/	.
.	.	.	.	.	.	.	.	4d/	.
=239	=239	=239	=239	=239	=239	=239	=239	=239	=239
1.AA	.	1C	.	1A	.	1.c	.	2e/	.
.	.	.	.	.	.	.	.	2f/	.
.	.	1E	.	1A	-as	.	.	2e/	.
2BB/	.	.	.	.	.	2B\	.	2d/	.
=240	=240	=240	=240	=240	=240	=240	=240	=240	=240
1C	.	2C/	.	1r	.	1A	.	1e	.
.	.	2E\	.	.	.	.	.	.	.
1D	.	2F\	.	1A	A-	1F	.	[1d	.
.	.	2G\	.	.	.	.	.	.	.
=241	=241	=241	=241	=241	=241	=241	=241	=241	=241
0AA	.	2.A\	.	[0Al	-men	0E	.	2d/]	.
.	.	.	.	.	.	.	.	2c#i/	.
.	.	4G\	.	.	.	.	.	.	.
.	.	1E	.	.	.	.	.	2c#i/	.
.	.	.	.	.	.	.	.	2B/	.
=242	=242	=242	=242	=242	=242	=242	=242	=242	=242
*	*	*^	*	*	*	*	*	*	*
0DDl	-men.	0F#l\	0Al/	-men	0A]	.	0Dl	-men.	0dl	-men.
*	*	*v	*v	*	*	*	*	*	*	*
==	==	==	==	==	==	==	==	==	==
*-	*-	*-	*-	*-	*-	*-	*-	*-	*-
!!!RDF**kern: l=long note in original notation
!!!RDF**kern: i=editorial accidental
!!!ENC:	Jesse Rodin 8/13/2013
!!!END:	2013/08/13/
!!!EED:	Jesse Rodin
!!!EEV:	2014/01/03/
!!!ONB:	Translated from MusicXML and edited on 2014/01/03/ by Craig Sapp
!!muse2ps: C^@{COM}^i2I150v85,85,85,85,110Q8c110
